X: 1
T: Hills Of Kaitoke, The
Z: MarcusDisessa
S: https://thesession.org/tunes/14762#setting27250
R: reel
M: 4/4
L: 1/8
K: Amaj
Bef |: "E"fg2g- gagB | "F#m"Bc2c- cBfg | "A"agfe "D"Bcdg | "B"ef2f- fBef |
"E"fg2g- gagB | "A"Bc2c- cBGE | "F#m"CEFG "D"ABce | [1 "E"fege "B"fBef :| [2 "E"fege "B"fefg |
|: "D"ag B2 - Bagf | "E"gfeB - Bgfe | "B"feBf "F#m"eBce | "Bsus4"fege "B"fefg |
"D"agB2- Bagf | "E"gfeB- BAGE | "F#m"CEFG "D"ABce | [1 "E"fege "B"fefg :| ][2 "E"fege "B"f |]
